.local/share/icons/Gruvbox-Plus-Dark/panel/22/mullvad-tray-6.svg

<svg width="22" height="22" version="1.1" xmlns="http://www.w3.org/2000/svg">
  <defs>
    <style id="current-color-scheme" type="text/css">.ColorScheme-Text { color:#ebdbb2; } .ColorScheme-Highlight { color:#458588; } .ColorScheme-NeutralText { color:#fe8019; } .ColorScheme-PositiveText { color:#689d6a; } .ColorScheme-NegativeText { color:#fb4934; }</style>
  </defs>
  <path class="ColorScheme-Text" d="m11 6.315c0.05579-0.02152 0.1124-0.04174 0.1699-0.06055 0.565-0.185 1.225-0.25 1.828-0.25 0.734 0 1.455 0.3515 2.02 0.8984 0.564 0.547 0.9805 1.318 0.9805 2.195 0 0.689-0.1904 1.466-0.6094 2.051 0 0 0.0028 0.01906 0.0078 0.03906 6e-3 0.019 0.0213 0.01216 0.0293 0.1602 0.011 0.221-0.1661 0.4775-0.3281 0.5625-0.078 0.041-0.1488 0.05927-0.2188 0.07227 0.077 0.452 0.1678 0.9499 0.2988 1.461 0.181 0.712 0.4408 1.396 0.7168 1.756 0.1653 0.2148 0.1194 0.4876-0.04492 0.6543l0.8081 0.8018c1.502-1.494 2.333-3.533 2.34-5.652 0-4.418-3.581-7.999-7.998-8 0 0 0.0018 3.316 1.2e-4 3.311zm1.998 0.689c-0.524 0-1.115 0.06937-1.518 0.2012-0.2965 0.09706-0.4836 0.2303-0.4824 0.2949 0.0014 0.2929 0.0029 0.5858 0.0044 0.8788 0.06578 0.1423 0.1353 0.2928 0.2163 0.426 0.278 0.3486 0.5423 0.706 0.8633 0.9961 0.175 0.147 0.7751 0.5358 0.8711 0.5898 0.283 0.156 0.5838 0.3064 0.9258 0.4414 0.288 0.092 0.4196 0.104 0.5566 0.123 0.011-0.064-0.0075-0.1107 0.01953-0.1797 0.019-0.047 0.04512-0.09381 0.07813-0.1328 0.239-0.297 0.4648-1.044 0.4648-1.545 0-0.5586-0.2718-1.086-0.6758-1.477-0.403-0.3908-0.9322-0.6172-1.324-0.6172zm-2 4 3.547 3.545c-0.1316-0.2728-0.2574-0.5477-0.3359-0.8555-0.173-0.677-0.2725-1.305-0.3555-1.816 0 0-0.4805-0.1838-0.5605-0.2188-0.414-0.165-0.9393-0.4045-1.57-0.8535-0.29-0.2064-0.5204-0.4509-0.7209-0.6805z" fill="currentColor" opacity=".3"/>
  <path class="ColorScheme-Text" d="m10.93 3a8 8 0 0 0-7.655 5.93 8 8 0 0 0 3.727 8.998 8 8 0 0 0 9.656-1.272l-0.814-0.814c-0.088 0.09-0.198 0.159-0.344 0.158h-6.998c-0.3213-1e-3 -0.5589-0.3-0.4863-0.613 0.086-0.372 0.8034-1.726 0.8984-1.981 0.095-0.254 0.0621-0.369 0.0781-0.342 0.017 0.028-0.0373-0.069-0.4843-0.064-0.2833 3e-3 -0.5127-0.229-0.5059-0.512l0.0059-0.269c-0.705-0.671-1.651-1.365-2.346-2.229-0.0532 0.0061-0.1067 0.0094-0.1602 0.0097-0.8284 0-1.5-0.6715-1.5-1.5s0.6716-1.5 1.5-1.5c0.6349 9e-4 1.2 0.4014 1.412 1 0.281-0.0015 1.886 0.0034 2.088 0v-0.5c0-0.2761 0.2239-0.5 0.5-0.5h0.738c0.067-0.111 0.074-0.2625 0.164-0.3418 0.176-0.1541 0.382-0.2539 0.598-0.3379v-3.32a8 8 0 0 0-0.072 0zm0.072 4.5c0 0.2761-0.224 0.5-0.5 0.5 0.201-2e-4 0.382 0.1198 0.461 0.3047 0.011 0.026 0.027 0.0487 0.039 0.0742zm-4.088 1.5c-0.0605 0.1713-0.1522 0.33-0.2695 0.4688 0.606 0.7001 1.461 1.413 2.223 2.177 0.0971 0.097 0.1497 0.229 0.1465 0.366l-0.0039 0.195c0.312 0.076 0.6809 0.081 0.8379 0.34 0.2523 0.417 0.137 0.847 2e-3 1.209s-0.5538 1.167-0.5918 1.244h5.508c-0.07-0.152-0.143-0.302-0.215-0.451l-3.549-3.549v-0.875c-0.264-0.3034-0.473-0.5989-0.65-0.8124-0.14-0.1678-0.248-0.2568-0.334-0.3086z" fill="currentColor"/>
</svg>

<svg xmlns="http://www.w3.org/2000/svg" width="22" height="22" version="1.1">
 <defs>
  <style id="current-color-scheme" type="text/css">
   .ColorScheme-Text { color:#ebdbb2; } .ColorScheme-Highlight { color:#458588; }
  </style>
 </defs>
 <path style="opacity:0.3;fill:currentColor" class="ColorScheme-Text" d="M 11,3 A 8,8 0 0 0 3,11 8,8 0 0 0 11,19 8,8 0 0 0 19,11 8,8 0 0 0 11,3 Z M 13,6 C 13.734,6 14.455,6.3515 15.02,6.8984 15.584,7.4454 16,8.2164 16,9.0938 16,9.7828 15.81,10.56 15.391,11.145 15.391,11.145 15.393,11.164 15.398,11.184 15.404,11.203 15.42,11.196 15.428,11.344 15.439,11.565 15.262,11.821 15.1,11.906 15.022,11.947 14.951,11.967 14.881,11.98 14.958,12.432 15.049,12.93 15.18,13.441 15.361,14.153 15.62,14.835 15.896,15.195 16.15,15.525 15.914,16.002 15.498,16 H 8.5 C 8.1787,15.999 7.9411,15.7 8.0137,15.387 8.0997,15.015 8.8171,13.661 8.9121,13.406 9.0071,13.152 8.9742,13.037 8.9902,13.064 9.0072,13.092 8.9529,12.995 8.5059,13 8.2226,13.003 7.9932,12.771 8,12.488 L 8.0059,12.219 C 7.3009,11.548 6.3552,10.854 5.6602,9.9902 5.607,9.9963 5.5535,9.9996 5.5,10 4.6716,10 4,9.3284 4,8.5 4,7.6716 4.6716,7 5.5,7 6.1349,7.0009 6.7005,7.4014 6.9121,8 7.1931,7.9985 8.798,8.0034 9,8 V 7.5 C 9,7.2239 9.2239,7 9.5,7 H 10.238 C 10.305,6.889 10.312,6.7375 10.402,6.6582 10.625,6.463 10.889,6.3425 11.172,6.25 11.737,6.065 12.397,6 13,6 Z M 13,7 C 12.476,7 11.885,7.0694 11.482,7.2012 11.281,7.267 11.132,7.3491 11.062,7.4102 10.994,7.4712 11,7.4728 11,7.5 11,7.7761 10.776,8 10.5,8 10.701,7.9998 10.882,8.1198 10.961,8.3047 11.035,8.4783 11.124,8.6413 11.221,8.8008 11.499,9.1494 11.763,9.5068 12.084,9.7969 12.259,9.9439 12.859,10.333 12.955,10.387 13.238,10.543 13.539,10.693 13.881,10.828 14.169,10.92 14.301,10.932 14.438,10.951 14.449,10.887 14.43,10.84 14.457,10.771 14.476,10.724 14.502,10.678 14.535,10.639 14.774,10.342 15,9.5945 15,9.0938 15,8.5352 14.728,8.008 14.324,7.6172 13.921,7.2264 13.392,7 13,7 Z M 6.9121,9 C 6.8516,9.1713 6.7599,9.33 6.6426,9.4688 7.2486,10.169 8.1032,10.882 8.8652,11.646 8.9623,11.743 9.0149,11.875 9.0117,12.012 L 9.0078,12.207 C 9.3198,12.283 9.6887,12.288 9.8457,12.547 10.098,12.964 9.9827,13.394 9.8477,13.756 9.7127,14.118 9.2939,14.923 9.2559,15 H 14.764 C 14.567,14.569 14.333,14.167 14.211,13.689 14.038,13.012 13.938,12.384 13.855,11.873 13.855,11.873 13.375,11.689 13.295,11.654 12.881,11.489 12.356,11.25 11.725,10.801 11.049,10.32 10.662,9.6889 10.35,9.3125 10.21,9.1447 10.102,9.0557 10.016,9.0039 Z"/>
 <path style="fill:currentColor" class="ColorScheme-Text" d="M 10.928,3.0001 A 8,8 0 0 0 3.2734,8.9298 8,8 0 0 0 7,17.928 8,8 0 0 0 16.656,16.656 L 15.842,15.842 C 15.754,15.932 15.644,16.001 15.498,16 H 8.5 C 8.1787,15.999 7.9411,15.7 8.0137,15.387 8.0997,15.015 8.8171,13.661 8.9121,13.406 9.0071,13.152 8.9742,13.037 8.9902,13.064 9.0072,13.092 8.9529,12.995 8.5059,13 8.2226,13.003 7.9932,12.771 8,12.488 L 8.0059,12.219 C 7.3009,11.548 6.3552,10.854 5.6602,9.9903 5.607,9.9964 5.5535,9.9997 5.5,10 4.6716,10 4,9.3285 4,8.5001 4,7.6717 4.6716,7.0001 5.5,7.0001 6.1349,7.001 6.7005,7.4015 6.9121,8.0001 7.1931,7.9986 8.798,8.0035 9,8.0001 V 7.5001 C 9,7.224 9.2239,7.0001 9.5,7.0001 H 10.238 C 10.305,6.8891 10.312,6.7376 10.402,6.6583 10.578,6.5042 10.784,6.4044 11,6.3204 V 3.0001 A 8,8 0 0 0 10.928,3.0001 Z M 11,7.5001 C 11,7.7762 10.776,8.0001 10.5,8.0001 10.701,7.9999 10.882,8.1199 10.961,8.3048 10.972,8.3308 10.988,8.3535 11,8.379 Z M 6.9121,9.0001 C 6.8516,9.1714 6.7599,9.3301 6.6426,9.4689 7.2486,10.169 8.1032,10.882 8.8652,11.646 8.9623,11.743 9.0149,11.875 9.0117,12.012 L 9.0078,12.207 C 9.3198,12.283 9.6887,12.288 9.8457,12.547 10.098,12.964 9.9827,13.394 9.8477,13.756 9.7127,14.118 9.2939,14.923 9.2559,15 H 14.764 C 14.694,14.848 14.621,14.698 14.549,14.549 L 11,11 V 10.125 C 10.736,9.8216 10.527,9.5261 10.35,9.3126 10.21,9.1448 10.102,9.0558 10.016,9.004 Z"/>
</svg>
